X:38
T:Coffee on the Bricks
C:Ed Yother
C:http://edyother.com
M:6/8
R:jig
K:Dmix
Dfe dBA | FAB AFE | Ec/c/c cBA | Ec/c/c cBA |
Dfe dBA | FAB AFE | cgf edB | AFE D3 :|
|: Af/f/f Af/f/f | gfe def | edc ABc | ABA FED |
[1 Af/f/f Af/f/f | gfe def | afb afe | ed^c d3 :|
[2 Ec/c/c cBA | ged cAG | Ec/c/c cBE | EDD D3 |]

